svg/fire.svg

<?xml version="1.0" encoding="UTF-8"?>
<svg xmlns="http://www.w3.org/2000/svg" xmlns:xlink="http://www.w3.org/1999/xlink" width="32" height="32" viewBox="0 0 32 32">
<path fill-rule="nonzero" fill="rgb(0%, 0%, 0%)" fill-opacity="1" d="M 28.523438 13.082031 C 28.523438 13.082031 27 14.46875 24.449219 16.121094 C 23.757812 12.078125 21.828125 7.089844 18.011719 1 C 18.011719 1 16.761719 7.535156 12.601562 13.71875 C 10.789062 10.917969 10.011719 8.722656 10.011719 8.722656 C -3.074219 21.761719 7.773438 31 14.582031 31 C 23.324219 31 31.019531 26.820312 28.523438 13.082031 M 15.03125 30.164062 C 13.125 30.164062 8.875 28.839844 6.820312 22.722656 C 6.820312 22.722656 7.558594 23.101562 8.757812 23.539062 C 8.808594 21.425781 9.65625 18.722656 11.832031 15.308594 C 11.832031 15.308594 12.375 16.773438 13.644531 18.640625 C 16.554688 14.519531 17.429688 10.160156 17.429688 10.160156 C 20.101562 14.222656 21.453125 17.550781 21.941406 20.242188 C 23.722656 19.140625 24.789062 18.21875 24.789062 18.21875 C 24.667969 20.929688 24.144531 23.054688 23.386719 24.714844 C 24.578125 24.519531 25.332031 24.3125 25.332031 24.3125 C 21.898438 29.160156 18.433594 30.164062 15.03125 30.164062 M 10.949219 21.925781 C 10.949219 21.925781 12.351562 23.839844 13.417969 23.378906 C 13.417969 23.378906 15.445312 20.226562 18.355469 18.476562 C 18.355469 18.476562 17.757812 23.277344 18.445312 24.128906 C 19.355469 25.257812 21.824219 22.875 21.824219 22.875 C 21.824219 25.714844 18.707031 29.289062 15.921875 29.289062 C 13.152344 29.289062 9.230469 26.210938 10.949219 21.925781 M 24.921875 9.058594 C 25.96875 7.539062 26.683594 5.980469 26.683594 5.980469 C 28.445312 8.867188 27.40625 10.625 26.632812 11.199219 C 25.59375 11.96875 23.707031 10.816406 24.921875 9.058594 M 5.75 8.566406 C 4.71875 6.804688 4.605469 4.605469 4.605469 4.605469 C 2.09375 8.378906 3.074219 10.433594 3.910156 11.058594 C 5.03125 11.890625 6.933594 10.601562 5.75 8.566406 M 11.589844 4.644531 C 11.71875 3.460938 11.222656 2.234375 11.222656 2.234375 C 13.605469 3.765625 13.578125 5.097656 13.265625 5.617188 C 12.847656 6.316406 11.441406 6.015625 11.589844 4.644531 "/>
</svg>

<svg role="img" viewBox="0 0 32 32" height="32" width="32" xmlns="http://www.w3.org/2000/svg"><path d="M28.523 13.082S27 14.469 24.45 16.122C23.758 12.077 21.83 7.09 18.012 1c0 0-1.25 6.535-5.41 12.719-1.813-2.801-2.59-4.996-2.59-4.996C-3.074 21.762 7.773 31 14.582 31c8.742 0 16.438-4.18 13.941-17.918M15.031 30.164c-1.906 0-6.156-1.324-8.21-7.441 0 0 .738.379 1.937.816.05-2.113.898-4.816 3.074-8.23 0 0 .543 1.464 1.813 3.332 2.91-4.121 3.785-8.48 3.785-8.48 2.672 4.062 4.023 7.39 4.511 10.081 1.782-1.101 2.848-2.023 2.848-2.023-.121 2.71-.644 4.836-1.402 6.496 1.191-.195 1.945-.402 1.945-.402-3.434 4.847-6.898 5.851-10.3 5.851m-4.083-8.238s1.403 1.914 2.469 1.453c0 0 2.027-3.152 4.937-4.902 0 0-.597 4.8.09 5.652.91 1.129 3.38-1.254 3.38-1.254 0 2.84-3.118 6.414-5.903 6.414-2.77 0-6.692-3.078-4.973-7.363M24.922 9.059c1.047-1.52 1.762-3.079 1.762-3.079 1.761 2.887.722 4.645-.051 5.22-1.04.769-2.926-.384-1.711-2.141M5.75 8.566c-1.031-1.761-1.145-3.96-1.145-3.96-2.511 3.773-1.53 5.828-.695 6.453 1.121.832 3.024-.457 1.84-2.493m5.84-3.921c.129-1.184-.367-2.41-.367-2.41 2.382 1.53 2.355 2.863 2.043 3.382-.418.7-1.825.399-1.676-.972"/></svg>
